X: 1036
T:Wild Mountain Thyme (A17)
T:Will you go Lassie go
T:Braes o Balquhidder
N: page A17
N: hexatonic
R:Reel
C:Trad.
O:Scotland
M:4/4
L:1/8
K:G
"G"G2 E2|D3D "D" E2 G2|"Em"G2 G2 B2 d2|\
"C"e3d "D7" e2 d2|"G"Bd3 B2 d2|"C"e4 "D"d2 B2|
"Em"AA3 A2 B2|c3B "Am"A2 G2|"C"EG3 G2E2|\
"G"D4 "C"E2G2|"G"G2 B2 d4|"C"c3d "D7"e2d2|
"G"Bd3 B2d2|"C"e4 "D"d2B2|"Em"AG3 A2B2|\
"C"c3B "Am"A2G2|"C"EG3 G2 E2|"G"D4 E2G2|G4||
